icons/traumatism.svg

<svg width="48" height="48" viewBox="0 0 48 48" fill="none" xmlns="http://www.w3.org/2000/svg">
<path fill-rule="evenodd" clip-rule="evenodd" d="M21.5706 13C24.0558 13 26.0706 10.9853 26.0706 8.5C26.0706 6.01472 24.0558 4 21.5706 4C19.0853 4 17.0706 6.01472 17.0706 8.5C17.0706 10.9853 19.0853 13 21.5706 13ZM21.5706 11C22.9513 11 24.0706 9.88071 24.0706 8.5C24.0706 7.11929 22.9513 6 21.5706 6C20.1899 6 19.0706 7.11929 19.0706 8.5C19.0706 9.88071 20.1899 11 21.5706 11Z" fill="black"/>
<path fill-rule="evenodd" clip-rule="evenodd" d="M11.8076 16.9446C13.0827 15.206 15.2273 15 16.5706 15H26.5706C30.3053 15 32.7945 16.6015 34.3319 18.6194C35.5387 20.2033 36.0883 21.9895 36.3313 22.7792L36.3374 22.7988C36.3725 22.9129 36.3971 22.9927 36.4166 23.0513C36.8282 24.2859 36.3924 25.5988 35.4249 26.3593C36.3629 26.8665 37 27.8588 37 29V43C37 43.5523 36.5523 44 36 44C35.4477 44 35 43.5523 35 43V29C35 28.4477 34.5523 28 34 28C33.4477 28 33 28.4477 33 29V29.6667C33 30.219 32.5523 30.6667 32 30.6667C31.4477 30.6667 31 30.219 31 29.6667V29C31 28.0426 31.4485 27.1899 32.1468 26.6406C31.4981 26.291 30.976 25.703 30.7245 24.9487C30.679 24.8121 30.6347 24.673 30.5916 24.5377L30.6052 24.5715L30.5806 24.503C30.3172 23.6742 30.0722 22.9288 29.5593 22.2556C29.3235 21.9461 29.0199 21.641 28.5706 21.409L28.5706 41.1507C28.5706 42.7505 27.3152 44.0688 25.7173 44.1471C24.1194 44.2253 22.7413 43.0359 22.585 41.4438L21.8542 34H21.287L20.5562 41.4438C20.3999 43.0359 19.0218 44.2253 17.4239 44.1471C15.826 44.0688 14.5706 42.7505 14.5706 41.1507L14.5706 26.6011C14.3315 26.2933 14.1014 25.9915 13.882 25.6964C12.9471 24.4392 12.083 23.1447 11.5631 21.9318C11.1288 20.9184 10.4391 18.8107 11.8076 16.9446ZM16.5706 17C15.2864 17 14.0737 17.2366 13.4204 18.1274C12.7382 19.0576 13.0027 20.2136 13.4014 21.1439C13.8248 22.1318 14.5714 23.2718 15.4869 24.503C15.7585 24.8682 16.0494 25.2473 16.3572 25.6393L16.4055 25.7009L18.1014 23.9242C17.5358 23.1526 16.964 22.4017 16.3158 21.6561C15.9535 21.2392 15.9976 20.6076 16.4145 20.2453C16.8313 19.883 17.4629 19.9271 17.8252 20.3439C18.4402 21.0514 18.9867 21.7579 19.5035 22.4553L24.7108 17H16.5706ZM27.4164 17.0339C27.3815 17.089 27.3407 17.1415 27.2939 17.1905L20.6998 24.0986C21.1892 24.7708 21.6821 25.4333 22.2278 26.1003C23.277 27.3826 23.088 29.2727 21.8057 30.3218C20.5233 31.371 18.6333 31.182 17.5841 29.8997C17.2637 29.5082 16.9241 29.1166 16.5706 28.7165L16.5706 41.1507C16.5706 41.684 16.9891 42.1234 17.5217 42.1495C18.0543 42.1756 18.5137 41.7791 18.5658 41.2484L19.4737 32H23.6675L24.5754 41.2484C24.6275 41.7791 25.0869 42.1756 25.6195 42.1495C26.1521 42.1234 26.5706 41.684 26.5706 41.1507L26.5706 18.9113L27.716 19.0797C29.4578 19.3358 30.4863 20.1723 31.1502 21.0435C31.8878 22.0117 32.2201 23.0581 32.4729 23.854L32.4867 23.8972C32.5339 24.0459 32.5777 24.1836 32.6219 24.3162C32.7966 24.8402 33.3629 25.1233 33.8868 24.9487C34.4108 24.774 34.6939 24.2077 34.5193 23.6838C34.4915 23.6003 34.4601 23.4983 34.4284 23.3954L34.4258 23.3871C34.1867 22.6103 33.7213 21.118 32.741 19.8315C31.6736 18.4305 30.0052 17.2462 27.4164 17.0339ZM19.2968 25.5685L17.8222 27.1133C18.2689 27.6159 18.7155 28.1242 19.132 28.6332C19.4817 29.0607 20.1117 29.1237 20.5392 28.7739C20.9666 28.4242 21.0296 27.7942 20.6799 27.3667C20.1846 26.7614 19.7304 26.1594 19.2968 25.5685Z" fill="black"/>
</svg>

<svg
  xmlns="http://www.w3.org/2000/svg"
  width="24"
  height="24"
  viewBox="0 0 24 24"
  fill="none"
  stroke="currentColor"
  stroke-width="2"
  stroke-linecap="round"
  stroke-linejoin="round"
>
  <path
    fill-rule="evenodd"
    d="M21.57 13a4.5 4.5 0 1 0 0-9 4.5 4.5 0 0 0 0 9m0-2a2.5 2.5 0 1 0 0-5 2.5 2.5 0 0 0 0 5"
    clip-rule="evenodd"
  />
  <path
    fill-rule="evenodd"
    d="M11.808 16.945C13.083 15.206 15.228 15 16.57 15h10c3.734 0 6.223 1.602 7.76 3.62 1.208 1.583 1.757 3.37 2 4.16l.006.019c.035.114.06.194.08.252a3 3 0 0 1-.992 3.308A3 3 0 0 1 37 29v14a1 1 0 1 1-2 0V29a1 1 0 1 0-2 0v.667a1 1 0 1 1-2 0V29c0-.957.448-1.81 1.147-2.36a3 3 0 0 1-1.422-1.691q-.069-.207-.133-.411l.013.034-.024-.069c-.264-.829-.509-1.574-1.022-2.247a2.9 2.9 0 0 0-.988-.847v19.742a3 3 0 0 1-5.986.293L21.855 34h-.568l-.73 7.444a3 3 0 0 1-5.986-.293V26.6q-.36-.462-.689-.905c-.935-1.257-1.799-2.551-2.319-3.764-.434-1.014-1.124-3.121.245-4.987M16.57 17c-1.285 0-2.497.237-3.15 1.127-.683.93-.418 2.087-.02 3.017.424.988 1.17 2.128 2.086 3.359q.407.548.87 1.136l.049.062 1.695-1.777a34 34 0 0 0-1.785-2.268 1 1 0 0 1 1.51-1.312 34 34 0 0 1 1.677 2.111L24.712 17zm10.845.034a1 1 0 0 1-.122.157L20.7 24.099c.49.672.982 1.334 1.528 2.001a3 3 0 1 1-4.644 3.8c-.32-.392-.66-.783-1.013-1.183V41.15a1 1 0 0 0 1.995.097L19.474 32h4.194l.907 9.248a1 1 0 0 0 1.996-.097V18.91l1.145.169c1.742.256 2.77 1.092 3.434 1.964.738.968 1.07 2.014 1.323 2.81l.014.043q.069.222.135.42a1 1 0 0 0 1.897-.633c-.027-.084-.059-.186-.09-.289l-.003-.008c-.24-.777-.705-2.269-1.685-3.556-1.067-1.4-2.736-2.585-5.325-2.797m-8.12 8.535-1.474 1.544c.447.503.893 1.011 1.31 1.52a1 1 0 1 0 1.548-1.266 43 43 0 0 1-1.383-1.799"
    clip-rule="evenodd"
  />
</svg>
